app/img/icons/servises-icon-5-mb.svg

<svg width="44" height="44" viewBox="0 0 44 44" fill="none" xmlns="http://www.w3.org/2000/svg">
<path d="M28.5782 24.8518C30.1953 24.8518 31.7943 25.2563 33.2023 26.0215C33.458 26.1593 33.6927 26.3236 33.9323 26.4817C36.2431 21.958 37.4627 17.1737 37.4627 12.5062C37.4627 12.2439 37.4627 11.9731 37.4542 11.7024C37.4373 11.3216 37.1665 10.9916 36.7858 10.907C31.675 9.7901 27.0465 7.02316 23.4081 2.91087L22.8665 2.29314C22.7057 2.10701 22.4773 2.00548 22.2319 2.00548C21.9696 1.97165 21.7665 2.09854 21.6058 2.27625L20.7765 3.19011C17.3242 6.98933 12.975 9.61239 8.20271 10.7801L7.65269 10.9154C7.28038 11.0001 7.01807 11.3301 7.0096 11.7108C6.705 23.6078 13.7281 32.1624 16.7573 35.2931C17.5775 36.1352 18.4919 36.9722 19.3613 37.664C19.0352 36.6803 18.8474 35.6453 18.8474 34.5826C18.8474 29.2169 23.2125 24.8518 28.5782 24.8518Z" fill="url(#paint0_linear)"/>
<path d="M32.3947 27.5086C31.227 26.874 29.907 26.5439 28.5785 26.5439C24.1447 26.5439 20.54 30.1486 20.54 34.5824C20.54 36.0801 20.9462 37.5439 21.7247 38.7962C23.2054 41.1909 25.7608 42.6209 28.5785 42.6209C33.0039 42.6209 36.617 39.0162 36.617 34.5824C36.617 31.6209 35.0008 28.9132 32.3947 27.5086ZM32.6954 33.5121L26.4083 38.4048L24.2619 35.0474C24.0099 34.6537 24.1252 34.1306 24.5189 33.879C24.9131 33.627 25.4366 33.7431 25.6874 34.136L26.8339 35.9291L31.6559 32.1768C32.024 31.8896 32.5562 31.9553 32.8433 32.3247C33.1305 32.6936 33.0639 33.2254 32.6954 33.5121Z" fill="url(#paint1_linear)"/>
<defs>
<linearGradient id="paint0_linear" x1="22.2313" y1="2" x2="22.2313" y2="37.664" gradientUnits="userSpaceOnUse">
<stop stop-color="#EF8080"/>
<stop offset="1" stop-color="#F0145A"/>
</linearGradient>
<linearGradient id="paint1_linear" x1="28.5785" y1="26.5439" x2="28.5785" y2="42.6209" gradientUnits="userSpaceOnUse">
<stop stop-color="#EF8080"/>
<stop offset="1" stop-color="#F0145A"/>
</linearGradient>
</defs>
</svg>

<svg xmlns="http://www.w3.org/2000/svg" width="44" height="44" fill="none" xmlns:v="https://vecta.io/nano"><path d="M28.578 24.852a9.71 9.71 0 0 1 4.624 1.17c.256.138.49.302.73.46 2.311-4.524 3.53-9.308 3.53-13.975l-.008-.804c-.017-.381-.288-.711-.668-.795-5.111-1.117-9.739-3.884-13.378-7.996l-.542-.618a.83.83 0 0 0-.635-.288c-.262-.034-.465.093-.626.271l-.829.914c-3.452 3.799-7.801 6.422-12.574 7.59l-.55.135a.83.83 0 0 0-.643.795c-.305 11.897 6.719 20.452 9.748 23.582a28.68 28.68 0 0 0 2.604 2.371c-.326-.984-.514-2.019-.514-3.081 0-5.366 4.365-9.731 9.731-9.731z" fill="url(#A)"/><path d="M32.395 27.509c-1.168-.635-2.488-.965-3.816-.965a8.05 8.05 0 0 0-8.038 8.038c0 1.498.406 2.962 1.185 4.214a8 8 0 0 0 6.854 3.825c4.425 0 8.038-3.605 8.038-8.038a8.02 8.02 0 0 0-4.222-7.074zm.301 6.003l-6.287 4.893-2.146-3.357c-.252-.394-.137-.917.257-1.168s.918-.136 1.169.257l1.146 1.793 4.822-3.752c.368-.287.9-.221 1.187.148s.221.901-.148 1.187z" fill="url(#B)"/><defs><linearGradient id="A" x1="22.231" y1="2" x2="22.231" y2="37.664" gradientUnits="userSpaceOnUse"><stop stop-color="#ef8080"/><stop offset="1" stop-color="#f0145a"/></linearGradient><linearGradient id="B" x1="28.579" y1="26.544" x2="28.579" y2="42.621" gradientUnits="userSpaceOnUse"><stop stop-color="#ef8080"/><stop offset="1" stop-color="#f0145a"/></linearGradient></defs></svg>
